platforms/android/assets/www/img/objectives/css/logo.svg

<?xml version="1.0" encoding="UTF-8" standalone="no"?>
<svg
   xmlns:dc="http://purl.org/dc/elements/1.1/"
   xmlns:cc="http://creativecommons.org/ns#"
   xmlns:rdf="http://www.w3.org/1999/02/22-rdf-syntax-ns#"
   xmlns:svg="http://www.w3.org/2000/svg"
   xmlns="http://www.w3.org/2000/svg"
   xmlns:sodipodi="http://sodipodi.sourceforge.net/DTD/sodipodi-0.dtd"
   xmlns:inkscape="http://www.inkscape.org/namespaces/inkscape"
   width="298px"
   height="340px"
   viewBox="0 80 298 340"
   version="1.1"
   id="svg2"
   inkscape:version="0.48.4 r9939"
   sodipodi:docname="logo.svg">
  <sodipodi:namedview
     pagecolor="#ffffff"
     bordercolor="#666666"
     borderopacity="1"
     objecttolerance="10"
     gridtolerance="10"
     guidetolerance="10"
     inkscape:pageopacity="0"
     inkscape:pageshadow="2"
     inkscape:window-width="640"
     inkscape:window-height="480"
     id="namedview20"
     showgrid="false"
     inkscape:zoom="0.69411765"
     inkscape:cx="-23.881356"
     inkscape:cy="54.745763"
     inkscape:window-x="10"
     inkscape:window-y="34"
     inkscape:window-maximized="0"
     inkscape:current-layer="svg2" />
  <metadata
     id="metadata24">
    <rdf:RDF>
      <cc:Work
         rdf:about="">
        <dc:format>image/svg+xml</dc:format>
        <dc:type
           rdf:resource="http://purl.org/dc/dcmitype/StillImage" />
      </cc:Work>
    </rdf:RDF>
  </metadata>
  <defs
     id="defs22" />
  <g
     fill-rule="evenodd"
     fill="none"
     stroke-width="1"
     stroke="none"
     id="Page 1">
    <g
       id="Layer_1">
      <path
         fill="#000000"
         id="Shape"
         d="M27.142,386.29 L0.071,82.67 L297.521,82.67 L270.425,386.241 L148.614,420.011 L27.142,386.29 Z M27.142,386.29" />
      <path
         fill="#000000"
         id="path7"
         d="M148.798,394.199 L247.225,366.911 L270.382,107.496 L148.798,107.496 L148.798,394.199 Z M148.798,394.199" />
      <g
         transform="translate(55.000000, 142.000000)"
         id="Group">
        <path
           id="path10"
           d="m 93.797,75.496 49.275,0 3.403,-38.132 -64.203424,0 L 93.797,0.125 l 0.129,0 93.246,0 -0.893,9.991 -9.152,102.616 -97.73678,0 z"
           inkscape:connector-curvature="0"
           style="fill:#ffffff"
           sodipodi:nodetypes="ccccccccccc" />
        <path
           id="path12"
           d="M94.02,172.204 L93.857,172.25 L52.385,161.051 L49.733,131.353 L29.582,131.353 L12.354,131.353 L17.57,189.82 L93.848,210.996 L94.02,210.948 L94.02,172.204 Z M94.02,172.204"
           fill="#ffffff" />
        <path
           id="path14"
           d="m 139.907,111.156 -4.484,49.87 L 75.162186,176.55803 93.891,210.978 170.23,189.82 l 0.56,-6.29 6.478,-72.374 z"
           inkscape:connector-curvature="0"
           style="fill:#ffffff"
           sodipodi:nodetypes="cccccccc" />
        <path
           fill="#ffffff"
           id="path16"
           d="M93.926,0.125 L93.926,23.253 L93.926,37.272 L93.926,37.364 L4.098,37.364 L3.979,37.364 L3.232,28.994 L1.535,10.116 L0.645,0.125 L93.926,0.125 Z M93.926,0.125" />
        <path
           fill="#ffffff"
           id="path18"
           d="M93.797,75.5 L93.797,98.629 L93.797,112.646 L93.797,112.738 L52.969,112.738 L52.85,112.738 L52.104,104.369 L50.406,85.491 L49.516,75.5 L93.797,75.5 Z M93.797,75.5" />
      </g>
    </g>
  </g>
</svg>

<?xml version="1.0" encoding="UTF-8" standalone="no"?>
<svg width="298px" height="340px" viewBox="0 80 298 340" version="1.1" xmlns="http://www.w3.org/2000/svg" xmlns:xlink="http://www.w3.org/1999/xlink" xmlns:sketch="http://www.bohemiancoding.com/sketch/ns">
    <g id="Page 1" stroke="none" stroke-width="1" fill="none" fill-rule="evenodd">
        <g id="Layer_1">
            <path d="M27.142,386.29 L0.071,82.67 L297.521,82.67 L270.425,386.241 L148.614,420.011 L27.142,386.29 Z M27.142,386.29" id="Shape" fill="#1572B6"></path>
            <path d="M148.798,394.199 L247.225,366.911 L270.382,107.496 L148.798,107.496 L148.798,394.199 Z M148.798,394.199" id="Shape" fill="#33A9DC"></path>
            <g id="Group" transform="translate(55.000000, 142.000000)">
                <path d="M93.797,75.496 L143.072,75.496 L146.475,37.364 L93.797,37.364 L93.797,0.125 L93.926,0.125 L187.172,0.125 L186.279,10.116 L177.127,112.732 L93.797,112.732 L93.797,75.496 Z M93.797,75.496" id="Shape" fill="#FFFFFF"></path>
                <path d="M94.02,172.204 L93.857,172.25 L52.385,161.051 L49.733,131.353 L29.582,131.353 L12.354,131.353 L17.57,189.82 L93.848,210.996 L94.02,210.948 L94.02,172.204 Z M94.02,172.204" id="Shape" fill="#EBEBEB"></path>
                <path d="M139.907,111.156 L135.423,161.026 L93.891,172.236 L93.891,210.978 L170.23,189.82 L170.79,183.53 L177.268,111.156 L139.907,111.156 Z M139.907,111.156" id="Shape" fill="#FFFFFF"></path>
                <path d="M93.926,0.125 L93.926,23.253 L93.926,37.272 L93.926,37.364 L4.098,37.364 L3.979,37.364 L3.232,28.994 L1.535,10.116 L0.645,0.125 L93.926,0.125 Z M93.926,0.125" id="Shape" fill="#EBEBEB"></path>
                <path d="M93.797,75.5 L93.797,98.629 L93.797,112.646 L93.797,112.738 L52.969,112.738 L52.85,112.738 L52.104,104.369 L50.406,85.491 L49.516,75.5 L93.797,75.5 Z M93.797,75.5" id="Shape" fill="#EBEBEB"></path>
            </g>
        </g>
    </g>
</svg>
